assets/Sparkler/Flat/sparkler_flat.svg

<svg width="32" height="32" viewBox="0 0 32 32" fill="none" xmlns="http://www.w3.org/2000/svg">
<path d="M26.29 2H5.67999C3.64999 2 2 3.65 2 5.68V26.29C2 28.32 3.64999 29.97 5.67999 29.97H26.29C28.32 29.97 29.97 28.32 29.97 26.29V5.68C29.97 3.65 28.33 2 26.29 2Z" fill="#533566"/>
<path d="M13.43 17.8171L2.73999 28.5071C3.07999 28.9671 3.53001 29.3371 4.04001 29.5971L14.63 19.0071L13.43 17.8171Z" fill="#D3D3D3"/>
<path d="M16.435 5.2868C16.435 5.04103 16.2357 4.8418 15.99 4.8418C15.7442 4.8418 15.545 5.04103 15.545 5.2868V8.66679C15.545 8.91256 15.7442 9.11179 15.99 9.11179C16.2357 9.11179 16.435 8.91256 16.435 8.66679V5.2868Z" fill="#FCD53F"/>
<path d="M12 7.49993C12 7.77608 11.7761 7.99994 11.5 7.99994C11.2238 7.99994 11 7.77608 11 7.49993C11 7.22379 11.2238 6.99993 11.5 6.99993C11.7761 6.99993 12 7.22379 12 7.49993Z" fill="#FCD53F"/>
<path d="M20 25.4999C20 25.7761 19.7761 25.9999 19.5 25.9999C19.2238 25.9999 19 25.7761 19 25.4999C19 25.2238 19.2238 24.9999 19.5 24.9999C19.7761 24.9999 20 25.2238 20 25.4999Z" fill="#FCD53F"/>
<path d="M6.49999 12.9999C6.77613 12.9999 6.99999 12.7761 6.99999 12.4999C6.99999 12.2238 6.77613 11.9999 6.49999 11.9999C6.22386 11.9999 5.99999 12.2238 5.99999 12.4999C5.99999 12.7761 6.22386 12.9999 6.49999 12.9999Z" fill="#FCD53F"/>
<path d="M26 20.4999C26 20.7761 25.7761 20.9999 25.5 20.9999C25.2238 20.9999 25 20.7761 25 20.4999C25 20.2238 25.2238 19.9999 25.5 19.9999C25.7761 19.9999 26 20.2238 26 20.4999Z" fill="#FCD53F"/>
<path d="M6.49999 20.9999C6.77613 20.9999 6.99999 20.7761 6.99999 20.4999C6.99999 20.2238 6.77613 19.9999 6.49999 19.9999C6.22386 19.9999 5.99999 20.2238 5.99999 20.4999C5.99999 20.7761 6.22386 20.9999 6.49999 20.9999Z" fill="#FCD53F"/>
<path d="M26.03 12.4999C26.03 12.7761 25.8061 12.9999 25.53 12.9999C25.2538 12.9999 25.03 12.7761 25.03 12.4999C25.03 12.2238 25.2538 11.9999 25.53 11.9999C25.8061 11.9999 26.03 12.2238 26.03 12.4999Z" fill="#FCD53F"/>
<path d="M12.48 25.9999C12.7561 25.9999 12.98 25.7761 12.98 25.4999C12.98 25.2238 12.7561 24.9999 12.48 24.9999C12.2038 24.9999 11.98 25.2238 11.98 25.4999C11.98 25.7761 12.2038 25.9999 12.48 25.9999Z" fill="#FCD53F"/>
<path d="M21 7.49993C21 7.77607 20.7762 7.99993 20.5 7.99993C20.2239 7.99993 20 7.77607 20 7.49993C20 7.22379 20.2239 6.99993 20.5 6.99993C20.7762 6.99993 21 7.22379 21 7.49993Z" fill="#FCD53F"/>
<path d="M24.245 8.26191C24.4189 8.43587 24.4189 8.71792 24.245 8.89188L21.855 11.2819C21.681 11.4558 21.399 11.4558 21.225 11.2819C21.0511 11.1079 21.0511 10.8259 21.225 10.6519L23.615 8.26192C23.789 8.08796 24.071 8.08796 24.245 8.26191Z" fill="#FCD53F"/>
<path d="M15.99 23.9318C16.2357 23.9318 16.435 24.1311 16.435 24.3768V27.7568C16.435 28.0026 16.2357 28.2018 15.99 28.2018C15.7442 28.2018 15.545 28.0026 15.545 27.7568V24.3768C15.545 24.1311 15.7442 23.9318 15.99 23.9318Z" fill="#FCD53F"/>
<path d="M8.35498 8.26192C8.18103 8.08796 7.89898 8.08796 7.72502 8.26191C7.55106 8.43587 7.55106 8.71792 7.72502 8.89188L10.115 11.2819C10.289 11.4558 10.571 11.4558 10.745 11.2819C10.9189 11.1079 10.9189 10.8259 10.745 10.6519L8.35498 8.26192Z" fill="#FCD53F"/>
<path d="M21.225 21.7619C21.399 21.588 21.681 21.588 21.855 21.7619L24.245 24.1519C24.4189 24.3259 24.4189 24.6079 24.245 24.7819C24.071 24.9558 23.789 24.9558 23.615 24.7819L21.225 22.3919C21.0511 22.2179 21.0511 21.9359 21.225 21.7619Z" fill="#FCD53F"/>
<path d="M4.74999 16.0718C4.50423 16.0718 4.30499 16.2711 4.30499 16.5168C4.30499 16.7626 4.50423 16.9618 4.74999 16.9618H8.13C8.37576 16.9618 8.575 16.7626 8.575 16.5168C8.575 16.2711 8.37576 16.0718 8.13 16.0718H4.74999Z" fill="#FCD53F"/>
<path d="M23.395 16.5168C23.395 16.2711 23.5942 16.0718 23.84 16.0718H27.22C27.4658 16.0718 27.665 16.2711 27.665 16.5168C27.665 16.7626 27.4658 16.9618 27.22 16.9618H23.84C23.5942 16.9618 23.395 16.7626 23.395 16.5168Z" fill="#FCD53F"/>
<path d="M22.98 13.2668L18.73 14.1768C18.49 14.2368 18.28 14.0168 18.33 13.7768L19.24 9.52682C19.32 9.15682 18.83 8.94682 18.62 9.26682L16.26 12.9168C16.13 13.1268 15.82 13.1268 15.69 12.9168L13.33 9.26682C13.12 8.95682 12.63 9.15682 12.71 9.52682L13.62 13.7768C13.68 14.0168 13.46 14.2268 13.22 14.1768L8.97001 13.2668C8.60001 13.1868 8.39 13.6768 8.71 13.8868L12.36 16.2468C12.57 16.3768 12.57 16.6868 12.36 16.8168L8.71 19.1768C8.4 19.3868 8.60001 19.8768 8.97001 19.7968L13.22 18.8868C13.46 18.8268 13.67 19.0468 13.62 19.2868L12.71 23.5368C12.63 23.9068 13.12 24.1168 13.33 23.7968L15.69 20.1468C15.82 19.9368 16.13 19.9368 16.26 20.1468L18.62 23.7968C18.83 24.1068 19.32 23.9068 19.24 23.5368L18.33 19.2868C18.27 19.0468 18.49 18.8368 18.73 18.8868L22.98 19.7968C23.35 19.8768 23.56 19.3868 23.24 19.1768L19.59 16.8168C19.38 16.6868 19.38 16.3768 19.59 16.2468L23.24 13.8868C23.55 13.6768 23.35 13.1868 22.98 13.2668Z" fill="#FCD53F"/>
</svg>

<svg xmlns="http://www.w3.org/2000/svg" width="32" height="32" fill="none"><path fill="#533566" d="M26.29 2H5.68C3.65 2 2 3.65 2 5.68v20.61c0 2.03 1.65 3.68 3.68 3.68h20.61c2.03 0 3.68-1.65 3.68-3.68V5.68c0-2.03-1.64-3.68-3.68-3.68Z"/><path fill="#D3D3D3" d="M13.43 17.817 2.74 28.507c.34.46.79.83 1.3 1.09l10.59-10.59-1.2-1.19Z"/><path fill="#FCD53F" d="M16.435 5.287a.445.445 0 0 0-.89 0v3.38a.445.445 0 1 0 .89 0v-3.38ZM12 7.5a.5.5 0 1 1-1 0 .5.5 0 0 1 1 0ZM20 25.5a.5.5 0 1 1-1 0 .5.5 0 0 1 1 0ZM6.5 13a.5.5 0 1 0 0-1 .5.5 0 0 0 0 1ZM26 20.5a.5.5 0 1 1-1 0 .5.5 0 0 1 1 0ZM6.5 21a.5.5 0 1 0 0-1 .5.5 0 0 0 0 1ZM26.03 12.5a.5.5 0 1 1-1 0 .5.5 0 0 1 1 0ZM12.48 26a.5.5 0 1 0 0-1 .5.5 0 0 0 0 1ZM21 7.5a.5.5 0 1 1-1 0 .5.5 0 0 1 1 0ZM24.245 8.262a.446.446 0 0 1 0 .63l-2.39 2.39a.446.446 0 0 1-.63-.63l2.39-2.39a.446.446 0 0 1 .63 0ZM15.99 23.932c.246 0 .445.2.445.445v3.38a.445.445 0 0 1-.89 0v-3.38c0-.246.2-.445.445-.445ZM8.355 8.262a.445.445 0 1 0-.63.63l2.39 2.39a.446.446 0 0 0 .63-.63l-2.39-2.39ZM21.225 21.762a.446.446 0 0 1 .63 0l2.39 2.39a.446.446 0 0 1-.63.63l-2.39-2.39a.446.446 0 0 1 0-.63ZM4.75 16.072a.445.445 0 0 0 0 .89h3.38a.445.445 0 1 0 0-.89H4.75ZM23.395 16.517c0-.246.2-.445.445-.445h3.38a.445.445 0 0 1 0 .89h-3.38a.445.445 0 0 1-.445-.445Z"/><path fill="#FCD53F" d="m22.98 13.267-4.25.91c-.24.06-.45-.16-.4-.4l.91-4.25c.08-.37-.41-.58-.62-.26l-2.36 3.65c-.13.21-.44.21-.57 0l-2.36-3.65c-.21-.31-.7-.11-.62.26l.91 4.25c.06.24-.16.45-.4.4l-4.25-.91c-.37-.08-.58.41-.26.62l3.65 2.36c.21.13.21.44 0 .57l-3.65 2.36c-.31.21-.11.7.26.62l4.25-.91c.24-.06.45.16.4.4l-.91 4.25c-.08.37.41.58.62.26l2.36-3.65c.13-.21.44-.21.57 0l2.36 3.65c.21.31.7.11.62-.26l-.91-4.25c-.06-.24.16-.45.4-.4l4.25.91c.37.08.58-.41.26-.62l-3.65-2.36a.337.337 0 0 1 0-.57l3.65-2.36c.31-.21.11-.7-.26-.62Z"/></svg>
